icons/2_Variations/Carta bg.var.svg

<svg width="1024" height="1024" viewBox="0 0 1024 1024" fill="none" xmlns="http://www.w3.org/2000/svg">
<g clip-path="url(#clip0_3_35)">
<path d="M512 1024C794.77 1024 1024 794.77 1024 512C1024 229.23 794.77 0 512 0C229.23 0 0 229.23 0 512C0 794.77 229.23 1024 512 1024Z" fill="#728DBE"/>
<path d="M192 372.471V651.531H832V372.471H192ZM815 634.471H209V389.471H815V634.471ZM284.57 519.001C284.57 487.431 311.08 468.901 334.86 468.901C351.86 468.901 367.76 475.321 376.27 490.111L360.37 499.381C357.624 495.221 353.88 491.815 349.48 489.473C345.08 487.131 340.164 485.927 335.18 485.971C321.18 485.971 304.55 496.971 304.55 518.681C304.55 539.891 320.45 551.581 336.5 551.581C347.66 551.581 356.93 545.331 362.41 535.681L378.67 543.231C369.47 559.871 353.01 568.741 333.93 568.741C309.91 568.691 284.57 550.131 284.57 519.001ZM435.47 568.721C448.69 568.721 461.17 562.851 467.61 554.351V566.001H487.25V471.321H467.61V483.001C461.49 474.411 448.71 468.821 435.47 468.821C406.54 468.821 386.3 489.991 386.3 518.731C386.3 546.951 406.73 568.691 435.47 568.691V568.721ZM437.36 486.861C455.51 486.861 467.97 500.461 467.97 518.811C467.97 537.161 455.49 550.761 437.36 550.761C418.82 550.761 406.36 536.961 406.36 518.431C406.35 500.271 419.21 486.831 437.36 486.831V486.861ZM586.49 489.641H571.38V470.701H586.68V442.701H606.92V470.701H627.92V489.621H606.92V566.001H586.49V489.641ZM683.89 568.711C697.13 568.711 709.61 562.841 716.05 554.341V566.001H735.71V471.321H716V483.001C709.88 474.411 697.1 468.821 683.84 468.821C654.93 468.821 634.7 489.991 634.7 518.731C634.74 546.951 655.15 568.691 683.89 568.691V568.711ZM685.8 486.851C703.93 486.851 716.43 500.451 716.43 518.801C716.43 537.151 703.93 550.751 685.8 550.751C667.26 550.751 654.8 536.951 654.8 518.421C654.79 500.271 667.65 486.831 685.8 486.831V486.851ZM527.93 565.911H507.5V471.191H526.21V487.641C530.08 476.951 538.26 469.641 549.1 469.641C551.455 469.6 553.806 469.848 556.1 470.381V488.701C540.84 486.911 527.94 497.591 527.94 521.991L527.93 565.911Z" fill="white"/>
</g>
<defs>
<clipPath id="clip0_3_35">
<rect width="1024" height="1024" fill="white"/>
</clipPath>
</defs>
</svg>

<svg width="1024" height="1024" fill="none" xmlns="http://www.w3.org/2000/svg"><g clip-path="url(#a)"><path d="M512 1024c282.77 0 512-229.23 512-512S794.77 0 512 0 0 229.23 0 512s229.23 512 512 512Z" fill="#728DBE"/><path d="M192 372.471v279.06h640v-279.06H192Zm623 262H209v-245h606v245Zm-530.43-115.47c0-31.57 26.51-50.1 50.29-50.1 17 0 32.9 6.42 41.41 21.21l-15.9 9.27a29.858 29.858 0 0 0-25.19-13.41c-14 0-30.63 11-30.63 32.71 0 21.21 15.9 32.9 31.95 32.9 11.16 0 20.43-6.25 25.91-15.9l16.26 7.55c-9.2 16.64-25.66 25.51-44.74 25.51-24.02-.05-49.36-18.61-49.36-49.74Zm150.9 49.72c13.22 0 25.7-5.87 32.14-14.37v11.65h19.64v-94.68h-19.64v11.68c-6.12-8.59-18.9-14.18-32.14-14.18-28.93 0-49.17 21.17-49.17 49.91 0 28.22 20.43 49.96 49.17 49.96v.03Zm1.89-81.86c18.15 0 30.61 13.6 30.61 31.95s-12.48 31.95-30.61 31.95c-18.54 0-31-13.8-31-32.33-.01-18.16 12.85-31.6 31-31.6v.03Zm149.13 2.78h-15.11v-18.94h15.3v-28h20.24v28h21v18.92h-21v76.38h-20.43v-76.36Zm97.4 79.07c13.24 0 25.72-5.87 32.16-14.37v11.66h19.66v-94.68H716v11.68c-6.12-8.59-18.9-14.18-32.16-14.18-28.91 0-49.14 21.17-49.14 49.91.04 28.22 20.45 49.96 49.19 49.96v.02Zm1.91-81.86c18.13 0 30.63 13.6 30.63 31.95s-12.5 31.95-30.63 31.95c-18.54 0-31-13.8-31-32.33-.01-18.15 12.85-31.59 31-31.59v.02Zm-157.87 79.06H507.5v-94.72h18.71v16.45c3.87-10.69 12.05-18 22.89-18a28.72 28.72 0 0 1 7 .74v18.32c-15.26-1.79-28.16 8.89-28.16 33.29l-.01 43.92Z" fill="#fff"/></g><defs><clipPath id="a"><path fill="#fff" d="M0 0h1024v1024H0z"/></clipPath></defs></svg>
